frontend/tochkarik/src/icons/bookmarked.svg

<svg xmlns="http://www.w3.org/2000/svg" x="0px" y="0px" width="100" height="100" viewBox="0 0 50 50"
     style="fill:#FFFFFF;">
    <path d="M 37 48 C 36.824219 48 36.652344 47.953125 36.496094 47.863281 L 25 41.15625 L 13.503906 47.863281 C 13.195313 48.042969 12.8125 48.046875 12.503906 47.867188 C 12.191406 47.6875 12 47.359375 12 47 L 12 3 C 12 2.449219 12.449219 2 13 2 L 37 2 C 37.554688 2 38 2.449219 38 3 L 38 47 C 38 47.359375 37.808594 47.6875 37.496094 47.867188 C 37.34375 47.957031 37.171875 48 37 48 Z"></path>
</svg>

<svg xmlns="http://www.w3.org/2000/svg" x="0px" y="0px" width="100" height="100" viewBox="0,0,300,150"
     style="fill:#FFFFFF;">
    <g fill="#ffffff" fill-rule="nonzero" stroke="none" stroke-width="1" stroke-linecap="butt" stroke-linejoin="miter" stroke-miterlimit="10" stroke-dasharray="" stroke-dashoffset="0" font-family="none" font-weight="none" font-size="none" text-anchor="none" style="mix-blend-mode: normal"><g transform="scale(5.12,5.12)"><path d="M37,48c-0.17578,0 -0.34766,-0.04687 -0.50391,-0.13672l-11.49609,-6.70703l-11.49609,6.70703c-0.30859,0.17969 -0.69141,0.18359 -1,0.00391c-0.3125,-0.17969 -0.50391,-0.50781 -0.50391,-0.86719v-44c0,-0.55078 0.44922,-1 1,-1h24c0.55469,0 1,0.44922 1,1v44c0,0.35938 -0.19141,0.6875 -0.50391,0.86719c-0.15234,0.08984 -0.32422,0.13281 -0.49609,0.13281z"></path></g></g>
</svg>
